!!!!SEGMENT: pl-kk--kk-i-385--002_anonim--tracuts.krn
!!!cenid: 17xx:1982
!!!COM: Anonim
!!!COM-rismid: pe30004985
!!!CDT:
!!!CNT:
!!!OTL: Tracuts
!!!PDT:
!!!AGN: Sacred
!!!SMS-siglum: PL-Kk
!!!SMS-shelfmark: Kk.I.385
!!!SMS-shelfwork: 002 W
!!!SMS-variant:
!!!SMS-altvar:
!!!NIFC-rismid: 1001143507
!!!URL-scan: http://repozytorium.nifc.pl/skany/pl-kk-nut--i-385
!!!ONB-nifc: UWAGA: numeracja zgodna z numeracją utworów w źródle
**kern	**text	**kern	**text	**kern	**text
*part3	*part3	*part2	*part2	*part1	*part1
*staff3	*staff3	*staff2	*staff2	*staff1	*staff1
*Itenor	*	*Ialto	*	*Isoprn	*
*I"Tenore.	*	*I"Alto.	*	*I"Soprano.	*
*I'T	*	*I'A	*	*I'S	*
*clefC4	*	*clefC3	*	*clefC1	*
*k[b-]	*	*k[b-]	*	*k[b-]	*
*F:	*	*F:	*	*F:	*
*M2/2	*	*M2/2	*	*M2/2	*
*met(c|)	*	*met(c|)	*	*met(c|)	*
=1	=1	=1	=1	=1	=1
*all\right	*	*all\right	*	*all\right	*
!LO:TX:a:t=8	!	!LO:TX:a:t=4.	!	!	!
!LO:TX:a:t=2dum.	!	!LO:TX:a:t=2dum.	!	!LO:TX:a:t=2dum.	!
!LO:TX:a:t=Tractus.	!	!LO:TX:a:t=Tractus.	!	!LO:TX:a:t=Tractus.	!
00r	.	00r	.	1r	.
=2	=2	=2	=2	=2	=2
*	*	*	*	*2\right	*
.	.	.	.	2cc\	Gau-
.	.	.	.	2cc\	-de
=3	=3	=3	=3	=3	=3
.	.	.	.	4f/	gau-
.	.	.	.	4e/	.
.	.	.	.	4f/	.
.	.	.	.	4g/	.
=4	=4	=4	=4	=4	=4
.	.	.	.	4a\	.
.	.	.	.	4b-\	.
.	.	.	.	2cc\	.
=5	=5	=5	=5	=5	=5
*	*	*2\right	*	*	*
00r	.	2.f\	Gau-	2cc\	de
.	.	.	.	2b-\	Ma-
.	.	8e\L	.	.	.
.	.	8d\J	.	.	.
=6	=6	=6	=6	=6	=6
.	.	4c\	.	2b-\	-ri-
.	.	4A\	.	.	.
.	.	4B-\	.	2a\	-a
.	.	4c\	.	.	.
=7	=7	=7	=7	=7	=7
.	.	4d\	.	2b-\	vir-
.	.	4e\	.	.	.
.	.	[2f\	.	2cc\	-go
!	!	!	!	!LO:LB:g=original	!
=8	=8	=8	=8	=8	=8
.	.	2f\]	.	4b-\	gau-
.	.	.	.	4a\	.
.	.	2e\	-de	4b-\	.
.	.	.	.	4cc\	.
=9	=9	=9	=9	=9	=9
*2\right	*	*	*	*	*
2c\	Gau-	2f\	Ma-	1a	-de
2c\	-de	2c\	.	.	.
=10	=10	=10	=10	=10	=10
!	!	!	!	!LO:TX:a:t=3.	!
4F/	gau-	1d	-ri-	0r	.
4E/	.	.	.	.	.
4F/	.	.	.	.	.
4G/	.	.	.	.	.
=11	=11	=11	=11	=11	=11
4A\	-de	2c\	-a	.	.
4B-\	Ma-	.	.	.	.
!	!	!LO:LB:g=original	!	!	!
[2c\	-ri-	2e\	gau-	.	.
=12	=12	=12	=12	=12	=12
2c\]	.	4d\	.	1r	.
.	.	4c\	.	.	.
2Bn\	-a	4d\	.	.	.
.	.	4e\	.	.	.
=13	=13	=13	=13	=13	=13
1c	vir-	4f\	-de	2f/	gau-
.	.	4c\	Ma-	.	.
.	.	[2f\	-ri-	2f/	-de
=14	=14	=14	=14	=14	=14
1c	-go	2f\]	.	2c/	cun-
.	.	2e\	-a	2c/	-ctas
=15	=15	=15	=15	=15	=15
2B-\	cun-	2d\	Vir-	4d/	he-
.	.	.	.	4e/	.
2A\	-ctas	2c\	-go	[y2f/	.
!LO:LB:g=original	!	!	!	!	!
=16	=16	=16	=16	=16	=16
!	!	!	!	!LO:N:xstem:cue	!
2.G/	he-	2c\	cun-	4f/]	.
.	.	.	.	4f/	-re-
.	.	[2c\	-ctas	2e/	-ses
4G/	-re-	.	.	.	.
=17	=17	=17	=17	=17	=17
1F	-ses,	2c\]	.	4f\	he-
.	.	.	.	4g\	.
.	.	[y2f\	he-	4a\	.
.	.	.	.	4b-\	.
!	!	!	!	!LO:LB:g=original	!
=18	=18	=18	=18	=18	=18
!	!	!LO:N:xstem:cue	!	!	!
0r	.	4f\]	.	2a\	.
.	.	4f\	-re-	.	.
.	.	2e\	-ses	2g\	-re-
!	!	!LO:LB:g=original	!	!	!
=19	=19	=19	=19	=19	=19
.	.	2.d\	so-	2f/	-ses
.	.	.	.	2g\	so-
.	.	4e\	.	.	.
=20	=20	=20	=20	=20	=20
2c\	so-	4f\	.	2a\	-la
.	.	4c\	.	.	.
2c\	-la	4f\	.	2cc\	in-
.	.	4e\	.	.	.
=21	=21	=21	=21	=21	=21
1F	in-	2d\	-la	4b-\	-ter-
.	.	.	.	8a\L	.
.	.	.	.	8g\J	.
.	.	2d\	in-	2f/	-re-
=22	=22	=22	=22	=22	=22
4A\	-ter-	4c\	-ter-	2f/	-mi-
4B-\	.	4d\	.	.	.
2c\	.	4e\	.	2g\	-sti
.	.	4c\	.	.	.
=23	=23	=23	=23	=23	=23
2c\	.	4d\	-re-	2r	.
.	.	4e\	.	.	.
[2B-\	-re-	4f\	.	2dd\	in-
.	.	4d\	.	.	.
=24	=24	=24	=24	=24	=24
2B-\]	.	2e\	mi-	2g\	-ter-
2A\	-mi-	[2f\	.	4a\	.
.	.	.	.	4b-\	-re-
!	!	!	!	!LO:LB:g=original	!
=25	=25	=25	=25	=25	=25
1G	.	2f\]	.	1cc	-mi-
.	.	2e\	.	.	.
!	!	!LO:LB:g=original	!	!	!
=26	=26	=26	=26	=26	=26
0A	-sti	1f	.	1cc	.
=27	=27	=27	=27	=27	=27
.	.	1f	-sti	2cc\	-sti
.	.	.	.	[2cc\	Que
!LO:LB:g=original	!	!	!	!	!
=28	=28	=28	=28	=28	=28
!	!	!LO:TX:a:t=3	!	!	!
0r	.	0r	.	2cc\]	.
.	.	.	.	4cc\	Gab-
.	.	.	.	4cc\	-ri-
=29	=29	=29	=29	=29	=29
.	.	.	.	2f/	-e-
.	.	.	.	[2b-\	.
=30	=30	=30	=30	=30	=30
1r	.	1r	.	2b-\]	-lis
.	.	.	.	2a\	ar-
=31	=31	=31	=31	=31	=31
2c\	que	2c\	Que	2.g\	-han-
4c\	Ga-	4c\	Ga-	.	.
4c\	-bri-	4c\	-bri-	4g\	-ge-
=32	=32	=32	=32	=32	=32
2F/	-e-	2.d\	-e-	1f	-li
[2B-\	.	.	.	.	.
.	.	4c\	.	.	.
=33	=33	=33	=33	=33	=33
!	!	!	!	!LO:TX:a:t=1.	!
2B-\]	.	4d\	.	1r	.
.	.	4e\	.	.	.
2A\	.	[2f\	.	.	.
!	!	!	!	!LO:LB:g=original	!
=34	=34	=34	=34	=34	=34
2G/	-lis	2f\]	.	2g\	que
[y2c\	ar-	2e\	.	4g\	ga-
.	.	.	.	4g\	-bri-
=35	=35	=35	=35	=35	=35
!LO:N:xstem:cue	!	!	!	!	!
4c\]	.	1f	-lis	2.a\	-e-
4B-\	.	.	.	.	.
2A\	.	.	.	.	.
.	.	.	.	4g\	-lis
=36	=36	=36	=36	=36	=36
2A\	.	1c	ar-	4a\	ar-
.	.	.	.	4b-\	.
2G\	.	.	.	[2cc\	-han-
!	!	!LO:LB:g=original	!	!	!
=37	=37	=37	=37	=37	=37
2.d\	han-	2.f\	-han-	2cc\]	.
.	.	.	.	2bn\	-ge-
4d\	-ge-	4f\	-ge-	.	.
!LO:LB:g=original	!	!	!	!	!
=38	=38	=38	=38	=38	=38
2G/	-li	2e\	-li	1cc	-li
[>2G/	dic-	2g\	Ga-	.	.
=39	=39	=39	=39	=39	=39
2G/]	.	2c\	-bri-	0r	.
2A\	-tis	2f\	-e-	.	.
=40	=40	=40	=40	=40	=40
4d\	cre-	2f\	-lis	.	.
4d\	-di-	.	.	.	.
[2c\	-di-	2e\	ar-	.	.
=41	=41	=41	=41	=41	=41
2c\]	.	2.d\	-han-	2r	.
2Bn\	.	.	.	2g\	die-
.	.	4d\	-ge-	.	.
=42	=42	=42	=42	=42	=42
1c	-sti	2e\	-li	2c/	-tis
.	.	2r	.	2cc\	cre-
!	!	!	!	!LO:LB:g=original	!
=43	=43	=43	=43	=43	=43
!LO:TX:a:t=1.	!	!	!	!	!
1r	.	1r	.	2cc\	.
.	.	.	.	2b-\	-di-
=44	=44	=44	=44	=44	=44
2r	.	2d\	dic-	1a	-di-
2A\	Ar-	2d\	-tis	.	.
!	!	!LO:LB:g=original	!	!	!
=45	=45	=45	=45	=45	=45
2.B-\	-han-	2G/	cre-	1g	-sti
.	.	[2g\	.	.	.
4A\	.	.	.	.	.
=46	=46	=46	=46	=46	=46
4B-\	.	2g\]	.	1r	.
4c\	.	.	.	.	.
!LO:LB:g=original	!	!	!	!	!
[y2d\	.	2f\	-di-	.	.
=47	=47	=47	=47	=47	=47
!LO:N:xstem:cue	!	!	!	!	!
4d\]	.	2e\	-di-	1a	dic-
4d\	ge-	.	.	.	.
2c#X\	-li	2e\	-sti	.	.
=48	=48	=48	=48	=48	=48
2d\	dic-	2d\	cre-	2d/	-tis
2d\	-tis	4d\	.	[2b-\	ce-
.	.	4e\	-di-	.	.
=49	=49	=49	=49	=49	=49
2d\	cre-	4f\	-di-	2b-\]	.
.	.	4g\	.	.	.
2c\	-di-	[2f\	.	2a\	-di-
=50	=50	=50	=50	=50	=50
4c\	-di-	2f\]	.	1g	-dis-
4B-\	.	.	.	.	.
4c\	.	2e\	.	.	.
4d\	.	.	.	.	.
=51	=51	=51	=51	=51	=51
2c\	-sti.	2f\	-sti	2a\	-ti
2r	.	2r	.	2cc\	dum
=52	=52	=52	=52	=52	=52
!	!	!LO:TX:a:t=5	!	!	!
00r	.	00r	.	2cc\	.
.	.	.	.	2cc\	vir-
!	!	!	!	!LO:LB:g=original	!
=53	=53	=53	=53	=53	=53
.	.	.	.	2.dd\	.
.	.	.	.	4cc\	-go
=54	=54	=54	=54	=54	=54
.	.	.	.	2b-\	De-
.	.	.	.	4a\	-um
.	.	.	.	4b-\	et
=55	=55	=55	=55	=55	=55
.	.	.	.	2.cc\	ho-
.	.	.	.	4b-\	.
=56	=56	=56	=56	=56	=56
2c\	Dum	1r	.	4a\	.
.	.	.	.	4g\	.
2c\	Vir-	.	.	2a\	.
!	!	!LO:LB:g=original	!	!	!
=57	=57	=57	=57	=57	=57
2.d\	-go	2f\	Dum	2.b-\	.
.	.	2f\	Vir-	.	.
4c\	.	.	.	4b-\	-mi-
!LO:LB:g=original	!	!	!	!	!
=58	=58	=58	=58	=58	=58
2B-\	De-	2.g\	.	1g	-nem
4A\	.	.	.	.	.
4B-\	.	4f\	-go	.	.
=59	=59	=59	=59	=59	=59
2.c\	.	4en\	De-	00r	.
.	.	4c\	.	.	.
.	.	4d\	.	.	.
4B-\	.	4e\	.	.	.
=60	=60	=60	=60	=60	=60
4A\	.	2.f\	.	.	.
4G\	.	.	.	.	.
[>2F/	-um	.	.	.	.
.	.	4e\	.	.	.
=61	=61	=61	=61	=61	=61
2F/]	.	2d\	-um	.	.
2c\	et	[2c\	Vir-	.	.
=62	=62	=62	=62	=62	=62
4d\	ho-	2c\]	.	.	.
4e\	.	.	.	.	.
[y2f\	.	[2B-\	-go	.	.
=63	=63	=63	=63	=63	=63
!LO:N:xstem:cue	!	!	!	!	!
4f\]	.	2B-/]	.	2cc\	Dum
4f\	-mi-	.	.	.	.
2F/	-nem	2A/	De-	2cc\	vir-
!	!	!	!	!LO:LB:g=original	!
=64	=64	=64	=64	=64	=64
!LO:TX:a:t=3	!	!	!	!	!
0r	.	2B-/	-um	2.dd\	.
.	.	2f\	et	.	.
.	.	.	.	4cc\	-go
!	!	!LO:LB:g=original	!	!	!
=65	=65	=65	=65	=65	=65
.	.	2.g\	ho-	2b-\	De-
.	.	.	.	2b-\	-um
.	.	4g\	-mi-	.	.
=66	=66	=66	=66	=66	=66
1r	.	2.en\	-nem	2.cc\	et
.	.	4e\	et	4b-\	.
=67	=67	=67	=67	=67	=67
1F	De-	2.f\	ho-	4a\	ho-
.	.	.	.	8b-\L	.
.	.	.	.	8cc\J	.
.	.	.	.	[y2dd\	.
.	.	4e\	-mi-	.	.
!LO:LB:g=original	!	!	!	!	!
=68	=68	=68	=68	=68	=68
!	!	!	!	!LO:N:xstem:cue	!
2.G/	-um	2d\	-nem	4dd\]	.
.	.	.	.	4cc\	.
.	.	[y2g\	ge-	4b-\	.
4F/	et	.	.	4a\	.
=69	=69	=69	=69	=69	=69
!	!	!LO:N:xstem:cue	!	!	!
4E/	ho-	4g\]	.	2g\	.
4D/	.	4f\	.	.	.
2C/	.	4e\	.	2g\	-mi-
.	.	4d\	-nu-	.	.
=70	=70	=70	=70	=70	=70
2.F/	.	1c	-is-	2a\	-nem
.	.	.	.	4cc\	ge-
4E/	-mi-	.	.	4cc\	-nu-
!	!	!	!	!LO:LB:g=original	!
=71	=71	=71	=71	=71	=71
2D/	-nem	2B-/	-ti	1dd	-is-
[y2B-\	ge-	2f\	et	.	.
=72	=72	=72	=72	=72	=72
!LO:N:xstem:cue	!	!	!	!	!
4B-\]	.	2.g\	ho-	1b-	-ti
4c\	.	.	.	.	.
4d\	.	.	.	.	.
4B-\	.	4g\	-mi-	.	.
=73	=73	=73	=73	=73	=73
[y1c	.	2f\	-nem	2a\	ge-
.	.	2e-X\	ge-	2g\	-nu-
!	!	!LO:LB:g=original	!	!	!
=74	=74	=74	=74	=74	=74
!LO:N:xstem:cue	!	!LO:SIC:v:s=2e-	!	!	!
2c\]	.	2e\	.	1g	-is-
4Bn\	.	4d\	-nu-	.	.
4A\	-nu-	4c\	.	.	.
=75	=75	=75	=75	=75	=75
4Bn\	-i-	1d	-is-	1g	.
2c\	.	.	.	.	.
4B\	.	.	.	.	.
!LO:LB:g=original	!	!	!	!	!
=76	=76	=76	=76	=76	=76
1c	-sti	2en\	-ti	1g	-ti,
.	.	2e\	et	.	.
=77	=77	=77	=77	=77	=77
!LO:TX:a:t=1.	!	!	!	!	!
1r	.	1c	post	00r	.
=78	=78	=78	=78	=78	=78
2r	.	2d\	par-	.	.
2F/	et	[2f\	.	.	.
=79	=79	=79	=79	=79	=79
2A\	post	2f\]	.	.	.
[2c\	par-	4e\	.	.	.
.	.	4d\	.	.	.
=80	=80	=80	=80	=80	=80
2c\]	.	4e\	.	.	.
.	.	4f\	.	.	.
4B-X\	.	[2g\	.	.	.
4A\	.	.	.	.	.
=81	=81	=81	=81	=81	=81
4B-\	.	2g\]	.	0r	.
4c\	.	.	.	.	.
2d\	.	[2f\	-tum	.	.
!	!	!LO:LB:g=original	!	!	!
=82	=82	=82	=82	=82	=82
!	!	!LO:TX:t=P:problem:brak zakończenia ligatury	!	!	!
2G/	-tum	2f\]	.	.	.
2c\	post	2e\	post	.	.
=83	=83	=83	=83	=83	=83
2B-\	par-	2d\	par-	1f	et
4A\	.	4c\	.	.	.
4G\	.	4B-\	.	.	.
!LO:LB:g=original	!	!	!	!	!
=84	=84	=84	=84	=84	=84
2A\	.	4c\	.	2a\	.
.	.	4d\	.	.	.
4G/	.	[2e\	.	[2cc\	post
4F/	.	.	.	.	.
=85	=85	=85	=85	=85	=85
4G/	.	2e\]	.	2cc\]	.
4A/	.	.	.	.	.
2B-\	.	4d\	.	4b-\	par-
.	.	4c\	.	4a\	.
!	!	!	!	!LO:LB:g=original	!
=86	=86	=86	=86	=86	=86
2B-\	.	4d\	.	4b-\	.
.	.	4e\	.	4cc\	.
2A\	-tum	[2f\	.	4dd\	.
.	.	.	.	4cc\	.
=87	=87	=87	=87	=87	=87
2G/	Vir-	2f\]	.	4an\	.
.	.	.	.	4f/	.
2G/	-go	2e-X\	tum	[2cc\	-tum
=88	=88	=88	=88	=88	=88
2G/	in-	1d	vir-	2cc\]	.
2G/	-vi-	.	.	2bn\	vir-
=89	=89	=89	=89	=89	=89
2G/	.	2en\	-go	1cc	-go
!	!	!LO:LB:g=original	!	!	!
2G/	-o-	2e\	in-	.	.
=90	=90	=90	=90	=90	=90
2.A\	-la-	2e\	-vi-	00r	.
.	.	2e\	-o-	.	.
4G/	.	.	.	.	.
=91	=91	=91	=91	=91	=91
4F/	.	2.f\	-la-	.	.
4E/	.	.	.	.	.
2D/	-ta	.	.	.	.
.	.	4e\	.	.	.
!LO:LB:g=original	!	!	!	!	!
=92	=92	=92	=92	=92	=92
2d\	in-	4d\	.	.	.
.	.	4e\	.	.	.
4c\	-vi-	[2f\	.	.	.
4c\	-o-	.	.	.	.
=93	=93	=93	=93	=93	=93
1B-	-la-	2f\]	.	.	.
.	.	2e\	ta	.	.
=94	=94	=94	=94	=94	=94
1A	.	2f\	in-	2cc\	in-
.	.	2f\	-vi-	4dd\	-vi-
.	.	.	.	4dd\	-o-
=95	=95	=95	=95	=95	=95
2B-\	-ta	2f\	.	4dd\	-la-
.	.	.	.	4cc\	.
2B-\	per-	2d\	-o-	4b-\	.
.	.	.	.	4a\	.
!	!	!	!	!LO:LB:g=original	!
=96	=96	=96	=96	=96	=96
!	!	!LO:SIC:v:s=2.e	!	!	!
!	!	!LO:TX:t=P:problem:♮/♭ ?	!	!	!
2.c\	-man-	2.e-X\	-la-	2g\	-ta
.	.	.	.	2cc\	per-
4B-\	.	4d\	-ta	.	.
=97	=97	=97	=97	=97	=97
4A\	-si-	2c\	per-	2f/	.
4F/	.	.	.	.	.
[2B-\	.	2d\	-man-	[>2f/	-man-
!	!	!LO:LB:g=original	!	!	!
=98	=98	=98	=98	=98	=98
2B-\]	.	1c	-sis-	2f/]	.
2A\	.	.	.	2f/	-si-
=99	=99	=99	=99	=99	=99
*M3/2	*	*M3/2	*	*M3/2	*
2B-\	-sti	2d\	-ti	2f/	-sti
2d\	vir-	2d\	Vir-	2b-\	per-
2d\	-go	2f\	-go	2b-\	-man-
!LO:LB:g=original	!	!	!	!	!
=100	=100	=100	=100	=100	=100
2c\	per-	2f\	per-	2a\	-si-
1B-	-man-	2d\	.	2g\	-sti
.	.	2d\	-man-	2g\	per-
=101	=101	=101	=101	=101	=101
2A\	-si-	2c\	-si-	2f/	-man-
1G	.	2d\	.	2f/	-si-
.	.	2c\	.	2e/	.
=102	=102	=102	=102	=102	=102
1.A;	-sti.	1.c	-sti.	1.f;	-sti.
==	==	==	==	==	==
*-	*-	*-	*-	*-	*-
!!!system-decoration: [(s1,s2,s3)]
!!!RDF**kern: > = above
!!!AIN: 1 alto 1 soprn 1 tenor
!!!ENC: Marta Lawrence
!!!END: 2021-02-13
!!!ENC: Krzysztof Stępień
!!!END: 2021-02-09
